!!!SOCIAL_FUNCTION:	game songs
!!!REG: Great Lakes
!!!PDT:	1913
!!!OTL: No_103_Moccasin_Game_Song_(a).krn
**kern	**kern
*staff2	*staff1
=1-	=1-
*clefF4	*clefF4
*k[f#c#g#d#]	*k[f#c#g#d#]
*M5/4	*M5/4
12GG#^/	8.c#\L
12r	.
12GG#/	.
.	16c#\L
12GG#^/	16c#\J
.	8.c#\
12r	.
12GG#/	.
12GG#^/	16c#\K
.	8.c#\J
12r	.
12GG#/	.
12GG#^/	8B\L
12r	.
.	8G#\J
12GG#/	.
12GG#^/	4c#\
12r	.
12GG#/	.
=2	=2
1r	8.c#\L
.	16c#\L
.	16c#\J
.	8.c#\
.	16c#\K
.	8.c#\J
.	8c#\L
.	8G#\J
4r	4G#\
=3	=3
1r	8.c#\L
.	16G#\K
.	8.G#\
.	16G#\K
.	8G#\
.	8G#\J
.	8G#\L
.	8D#\J
4r	4G#\
=4	=4
1r	8.c#\L
.	16G#\Jk
.	4G#\
.	16G#\LK
.	8.G#\J
.	8c#\L
.	8G#\J
4r	4F#\
=5	=5
1r	8.E\L
.	16E\Jk
.	4E\
.	16E\LK
.	8.E\J
.	8E/L
.	8C#/J
4r	4E\
=6	=6
1r	8.F#\L
.	16E\Jk
.	4E\
.	16E\LK
.	8.E\J
.	8C#/L
.	8C#/J
4r	4C#/
=7||	=7||
*M3/4	*M3/4
2.r	8.C#/L
.	16C#/Jk
.	8C#/L
.	8C#/J
.	4C#/
=8	=8
2.r	2.C#/
=9||	=9||
*M5/4	*M5/4
1r	8.C#/L
.	16G#/Jk
.	4G#\
.	16G#\LK
.	8.G#\J
.	8G#\L
.	8E\J
4r	4G#\
=10	=10
1r	8.c#\L
.	16G#\Jk
.	4G#\
.	16G#\LK
.	8.G#\J
.	8c#\L
.	8G#\J
4r	4F#\
=11	=11
1r	8.E\L
.	16E\L
.	16E\J
.	8.E\
.	16E\K
.	8.E\J
.	8E/L
.	8C#/J
4r	4E\
=12	=12
1r	8.F#\L
.	16E\Jk
.	4E\
.	16E\LK
.	8.E\J
.	8C#/L
.	8C#/J
4r	4C#/
=13||	=13||
*M3/4	*M3/4
2.r	8.C#/L
.	16C#/Jk
.	8C#/L
.	8C#/J
.	4C#/
=14	=14
2.r	2.C#/
==	==
*-	*-
